images_sukapura_svg/cmd/lc_backward.svg

<svg viewBox="0 0 24 24" xmlns="http://www.w3.org/2000/svg" xmlns:xlink="http://www.w3.org/1999/xlink"><linearGradient id="a" gradientUnits="userSpaceOnUse" x1="-4" x2="-4" y1="49" y2="41"><stop offset="0" stop-color="#f5f5f5"/><stop offset=".25" stop-color="#fdfdfd"/><stop offset="1" stop-color="#fff"/></linearGradient><path d="m5.9492188 2c-.5263 0-.9492188.4229187-.9492188.9492188v8.0507812 7.050781c0 .5263.4229188.949219.9492188.949219h9.0507812 6.050781c.5263 0 .949219-.422919.949219-.949219v-8.050781-7.0507812c0-.5263-.422919-.9492188-.949219-.9492188h-9.050781zm.0507812 1h15v15h-15z" fill="#e4b500"/><path d="m6 3h15v15h-15z" fill="#fc0"/><path d="m2.9492188 12c-.5263 0-.9492188.422919-.9492188.949219v8.101562c0 .5263.4229188.949219.9492188.949219h10.1015622c.5263 0 .949219-.422919.949219-.949219v-8.101562c0-.5263-.422919-.949219-.949219-.949219zm.0507812 1h10v8h-10z" fill="#98989d"/><path d="m3 13v8h10v-8z" fill="url(#a)"/></svg>

<?xml version="1.0" encoding="UTF-8" standalone="no"?>
<svg
   xmlns:dc="http://purl.org/dc/elements/1.1/"
   xmlns:cc="http://creativecommons.org/ns#"
   xmlns:rdf="http://www.w3.org/1999/02/22-rdf-syntax-ns#"
   xmlns:svg="http://www.w3.org/2000/svg"
   xmlns="http://www.w3.org/2000/svg"
   xmlns:xlink="http://www.w3.org/1999/xlink"
   xmlns:sodipodi="http://sodipodi.sourceforge.net/DTD/sodipodi-0.dtd"
   xmlns:inkscape="http://www.inkscape.org/namespaces/inkscape"
   viewBox="0 0 24 24"
   version="1.1"
   id="svg16"
   sodipodi:docname="lc_backward.svg"
   inkscape:export-filename="/home/rizmut/Dokumen/Rizmut/Github/libreoffice-style-sukapura/images_sukapura/cmd/lc_backward.png"
   inkscape:export-xdpi="96"
   inkscape:export-ydpi="96"
   inkscape:version="0.92.3 (unknown)">
  <metadata
     id="metadata22">
    <rdf:RDF>
      <cc:Work
         rdf:about="">
        <dc:format>image/svg+xml</dc:format>
        <dc:type
           rdf:resource="http://purl.org/dc/dcmitype/StillImage" />
        <dc:title></dc:title>
      </cc:Work>
    </rdf:RDF>
  </metadata>
  <defs
     id="defs20">
    <linearGradient
       gradientTransform="translate(-12,28)"
       y2="2"
       y1="16"
       x2="10"
       x1="10"
       gradientUnits="userSpaceOnUse"
       id="linearGradient1639">
      <stop
         id="stop1633"
         stop-color="#f5f5f5"
         offset="0" />
      <stop
         id="stop1637"
         stop-color="#fff"
         offset="1" />
    </linearGradient>
    <linearGradient
       gradientTransform="translate(75,-7)"
       id="a-367"
       gradientUnits="userSpaceOnUse"
       x1="14"
       x2="13.79661"
       y1="22"
       y2="2.1355929">
      <stop
         offset="0"
         stop-color="#0040dd"
         id="stop2206" />
      <stop
         offset="1"
         stop-color="#0a84ff"
         id="stop2208" />
    </linearGradient>
    <clipPath
       clipPathUnits="userSpaceOnUse"
       id="clipPath962">
      <path
         id="path964"
         d="m 4,11 h 8 v 3 H 4 Z"
         style="fill:#000000;fill-opacity:1"
         inkscape:connector-curvature="0" />
    </clipPath>
    <linearGradient
       id="a"
       gradientUnits="userSpaceOnUse"
       x1="10"
       x2="10"
       y1="16"
       y2="2"
       gradientTransform="translate(-12,28)">
      <stop
         offset="0"
         stop-color="#f5f5f5"
         id="stop1025" />
      <stop
         offset="0.25"
         stop-color="#fdfdfd"
         id="stop1027" />
      <stop
         offset="1"
         stop-color="#fff"
         id="stop1029" />
    </linearGradient>
    <linearGradient
       inkscape:collect="always"
       xlink:href="#a"
       id="linearGradient1709"
       x1="8"
       y1="21"
       x2="8"
       y2="13"
       gradientUnits="userSpaceOnUse" />
  </defs>
  <sodipodi:namedview
     pagecolor="#ffffff"
     bordercolor="#666666"
     borderopacity="1"
     objecttolerance="10"
     gridtolerance="10"
     guidetolerance="10"
     inkscape:pageopacity="0"
     inkscape:pageshadow="2"
     inkscape:window-width="1366"
     inkscape:window-height="706"
     id="namedview18"
     showgrid="true"
     inkscape:zoom="5.6568543"
     inkscape:cx="-21.728995"
     inkscape:cy="12.550647"
     inkscape:window-x="0"
     inkscape:window-y="0"
     inkscape:window-maximized="1"
     inkscape:current-layer="svg16">
    <inkscape:grid
       type="xygrid"
       id="grid829"
       spacingx="0.5"
       spacingy="0.5"
       empspacing="2" />
  </sodipodi:namedview>
  <g
     id="g1701">
    <path
       style="fill:#e4b500;fill-opacity:1"
       d="M 5.9492188 2 C 5.4229188 2 5 2.4229187 5 2.9492188 L 5 11 L 5 18.050781 C 5 18.577081 5.4229188 19 5.9492188 19 L 15 19 L 21.050781 19 C 21.577081 19 22 18.577081 22 18.050781 L 22 10 L 22 2.9492188 C 22 2.4229188 21.577081 2 21.050781 2 L 12 2 L 5.9492188 2 z M 6 3 L 21 3 L 21 18 L 6 18 L 6 3 z "
       id="path6-5" />
    <rect
       style="fill:#ffcc00;fill-opacity:1;stroke:none;stroke-opacity:1"
       id="rect1714"
       width="15"
       height="15"
       x="6"
       y="3" />
    <path
       id="path2"
       d="M 2.9492188,12 C 2.4229188,12 2,12.422919 2,12.949219 v 8.101562 C 2,21.577081 2.4229188,22 2.9492188,22 H 13.050781 C 13.577081,22 14,21.577081 14,21.050781 V 12.949219 C 14,12.422919 13.577081,12 13.050781,12 Z M 3,13 h 10 v 8 H 3 Z"
       style="fill:#98989d;stroke:none;fill-opacity:1"
       inkscape:connector-curvature="0" />
    <path
       id="path4"
       d="m 3,13 v 8 h 10 v -8 z"
       style="fill:url(#linearGradient1709);fill-opacity:1;stroke:none"
       inkscape:connector-curvature="0" />
  </g>
</svg>
